Hatter-kde-dark/actions/22/flower-shape.svg

<svg xmlns="http://www.w3.org/2000/svg" viewBox="0 0 22 22">
  <defs id="defs3051">
    <style type="text/css" id="current-color-scheme">
      .ColorScheme-Text {
        color:#dedede;
      }
      </style>
  </defs>
 <path 
     style="fill:currentColor;fill-opacity:1;stroke:none" 
     d="M 11 3 C 9.895146 3 8.65625 5.34375 8.65625 5.34375 C 8.65625 5.34375 6.1245137 4.5629863 5.34375 5.34375 C 4.5629863 6.1245137 5.34375 8.65625 5.34375 8.65625 C 5.34375 8.65625 3 9.895146 3 11 C 3 12.104854 5.34375 13.34375 5.34375 13.34375 C 5.34375 13.34375 4.5629863 15.875486 5.34375 16.65625 C 6.1245137 17.437014 8.65625 16.65625 8.65625 16.65625 C 8.65625 16.65625 9.895146 19 11 19 C 12.104854 19 13.34375 16.65625 13.34375 16.65625 C 13.34375 16.65625 15.875486 17.437014 16.65625 16.65625 C 17.437014 15.875486 16.65625 13.34375 16.65625 13.34375 C 16.65625 13.34375 19 12.104854 19 11 C 19 9.895146 16.65625 8.65625 16.65625 8.65625 C 16.65625 8.65625 17.437014 6.1245137 16.65625 5.34375 C 15.875486 4.5629863 13.34375 5.34375 13.34375 5.34375 C 13.34375 5.34375 12.104854 3 11 3 z M 11 7 C 13.209139 7 15 8.790861 15 11 C 15 13.209139 13.209139 15 11 15 C 8.790861 15 7 13.209139 7 11 C 7 8.790861 8.790861 7 11 7 z "
	 class="ColorScheme-Text"
     />
</svg>

<?xml version="1.0" encoding="UTF-8"?>
<svg viewBox="0 0 22 22" xmlns="http://www.w3.org/2000/svg">
 <defs id="defs3051">
  <style id="current-color-scheme" type="text/css">.ColorScheme-Text {
        color:#dedede;
      }</style>
 </defs>
 <path class="ColorScheme-Text" d="m11 3c-1.1049 0-2.3438 2.3438-2.3438 2.3438s-2.5317-0.78076-3.3125 0 0 3.3125 0 3.3125-2.3438 1.2389-2.3438 2.3438 2.3438 2.3438 2.3438 2.3438-0.78076 2.5317 0 3.3125 3.3125 0 3.3125 0 1.2389 2.3438 2.3438 2.3438 2.3438-2.3438 2.3438-2.3438 2.5317 0.78076 3.3125 0 0-3.3125 0-3.3125 2.3438-1.2389 2.3438-2.3438-2.3438-2.3438-2.3438-2.3438 0.78076-2.5317 0-3.3125-3.3125 0-3.3125 0-1.2389-2.3438-2.3438-2.3438zm0 4c2.2091 0 4 1.7909 4 4s-1.7909 4-4 4-4-1.7909-4-4 1.7909-4 4-4z" fill="currentColor"/>
</svg>
